!!!COM: Bach, Johann Sebastian
!!!CDT: 1685/3//-1750/7/28/
!!!OTL@@DE: O Traurigkeit
!!!AGN: 4-Part Chorale
!!!SCT: BH 57
!!!SCT: BWV 404
**harm	**root	**kern	**kern	**kern	**kern
!	!	!bass	!tenor	!alto	!soprno
*	*Iorgan	*Iorgan	*Iorgan	*Iorgan	*Iorgan
*	*	*clefF4	*clefF4	*clefG2	*clefG2
*k[b-]	*k[b-]	*k[b-]	*k[b-]	*k[b-]	*k[b-]
*d:	*d:	*d:	*d:	*d:	*d:
*M4/4	*M4/4	*M4/4	*M4/4	*M4/4	*M4/4
*met(c)	*met(c)	*met(c)	*met(c)	*met(c)	*met(c)
*MM60	*MM60	*MM60	*MM60	*MM60	*MM60
V	4EE	4A	4e	4cc#	4aa
=1	=1	=1	=1	=1	=1
i	4AA	4d	8d	4a	8ff
.	.	.	8c#	.	8ee
viio7c/V	4DD#	4D	4B	8a	4ff
.	.	.	.	8g#	.
V	4EE	4A;	4c#;	4a;	4ee;
Vd	4EE	4G	4e	4a	4cc#
=2	=2	=2	=2	=2	=2
ib	4AA	4F	4f	4a	4dd
iv	4DD	4B-	8e	4g	4dd
.	.	.	8d	.	.
V;	4EE;	4A;	4e;	4a;	4cc#;
V	4EE	4A	4e	4cc#	4aa
=3	=3	=3	=3	=3	=3
i	4AA	4d	4f	4dd	4aa
Vb	4EE	4c#	4e	4ee	4aa
VI	4FF	8d	8f	4dd	4bb-
.	.	8e	8g	.	.
III	4CC	4f	8a	4cc	8aa
.	.	.	8f	.	8gg
=4	=4	=4	=4	=4	=4
V7b/-VII	4DD	4B	4f	4dd	2gg
-VII	4GG	4c	4e	8cc	.
.	.	.	.	8b-	.
III;	2CC;	2F;	2f;	2a;	2ff;
!!linebreak: 2
=5	=5	=5	=5	=5	=5
-VII	4GG	4C	4g	4cc	4ee
VIb	4FF	4D	4f	8b-	4ff
.	.	.	.	8a	.
-VIIb	4GG	4E	4cc	8g	4gg
.	.	.	.	8gg	.
III	4CC	4F	8c	4ff	4aa
.	.	.	8d	.	.
=6	=6	=6	=6	=6	=6
V7b	4EE	4c#	8e	4ee	4gg
.	.	.	8A	.	.
i	4AA	4d	4a	4dd	4ff
V;	2EE;	2A;	2a;	2cc#;	2ee;
=7	=7	=7	=7	=7	=7
#viD7	4FF#	4B	8a	4a	4dd
.	.	.	[8g	.	.
V7b	4EE	4c#	8g]	4a	4ee
.	.	.	[8f	.	.
ib	4AA	8d	8f]	4a	4ff
.	.	8c	8e	.	.
ivb	4DD	8B-	4d	8dd	8gg
.	.	8A	.	8cc	8aa
=8	=8	=8	=8	=8	=8
iv	4DD	4G	4d	4b-	2ee
V7	4EE	4A	4c#	8a	.
.	.	.	.	8g	.
i;	2AA;	2D;	2A;	2f;	2dd;
==	==	==	==	==	==
*-	*-	*-	*-	*-	*-
!!chor2scor: -l 2 -s 0.6 -o %b.pmx
!!!YEC: Copyright 2003 by Craig Stuart Sapp
!!!license: GNU General Public License (http://www.gnu.org/copyleft/gpl.html)
!!!SMA: 371 Bach Chorales, edited by Ludwig Erk, C.F. Peters
!!!PDT: 1850, 1865
!!!ONB: Harmony and Root analysis done manually by Craig Sapp
